X:1
T:I Am on My Way to Jesus
T:I Am on My Way to Jesus
T:Logan Oskin
T:Wayne Hopkins, 1914
T:Public Domain Courtesy of the Cyber Hymnal™
T:Public Domain Courtesy of the Cyber Hymnal™
C:Logan Oskin
Z:Public Domain
Z:Courtesy of the Cyber Hymnal™
%%score ( 1 2 ) ( 3 4 )
L:1/8
Q:1/4=90
M:2/4
K:G
V:1 treble 
V:2 treble 
V:3 bass 
V:4 bass 
V:1
 [B,D]/[B,D]/ | [DG][DG] [DG][DG] | [DG][B,D] [DG][GB] | [Fd][Gd] [Ad][Fd] | [Gd]3 [GB]/[GB]/ | %5
w: 1.~I am|on my way to|Je- sus Where with|an- gels I will|be; I am|
w: 2.~I have|walked in Sa- tan’s|broad way, But I|saw death at the|end; I am|
w: 3.~I’ve had|ma- ny trials and|trou- bles That a-|long with sin must|go; I am|
 [Ac][Fc] [Fc][FA] | [GB][GB] [DG][GB] | [FA]4- | [FA]2 z [B,D]/[B,D]/ | [DG][DG] [DG][DG] | %10
w: on my way to|Je- sus, Bless His|name;|* I have|felt His Spir- it|
w: on my way to|Je- sus, Bless His|name;|* But I’ve|changed my way of|
w: on my way to|Je- sus, Bless His|name;|* But I’ve|found a way that’s|
 [DG][B,D] [DG][GB] | [Fd][Gd] [Ad][Fd] | [Gd]3 [Gd]/[Gd]/ | [Ge][Ge] [Ec][Ge] | [Fd]2 [DF]2 | %15
w: touch me, And I|know from sin I’m|free, And I’m|on my way to|Je- sus|
w: walk- ing, And have|found a pre- cious|friend, And I’m|on my way to|Je- sus|
w: bet- ter, For my|heart it tells me|so, And I’m|on my way to|Je- sus|
 [DG]4- | [DG]2 z ||"^Refrain" [Gd]/[Gd]/ | d4 | [Gd]2 z [Gd]/d/ | d4 | [Gd]2 z [Gd]/[Gd]/ | %22
w: now.|||||||
w: now.||Hal- le-|lu-|jah! hal- le-|lu-|jah! And I’m|
w: now.|||||||
 [Ge][Gd] [Fc][GB] | [FA][FA] [FA][GB] | c4- | [Fc]2 z D/D/ | [DG][DG] [DG][DG] | %27
w: |||||
w: on my way to|Je- sus, Bless His|name.|I have felt|His Spir- it touch|
w: |||||
 [DG][B,D] [DG][GB] | [Fd][Gd] [Ad][Fd] | [Gd]3 [Gd]/[Gd]/ | [Ge][Ge] [Ec][Ge] | [Fd]2 [DF]2 | %32
w: |||||
w: me, And I know|from sin I’m free,|And I’m on|my way to Je-|sus now.|
w: |||||
 [DG]4- | [DG]2 z |] %34
w: ||
w: ||
w: ||
V:2
 x | x4 | x4 | x4 | x4 | x4 | x4 | x4 | x4 | x4 | x4 | x4 | x4 | x4 | x4 | x4 | x3 || x | (GFGF) | %19
 x4 | (FGAF) | x4 | x4 | x4 | (FFAG) | x3 D/D/ | x4 | x4 | x4 | x4 | x4 | x4 | x4 | x3 |] %34
V:3
 G,/G,/ | [G,B,][G,B,] [G,B,][G,B,] | [G,B,]G, [G,B,][G,D] | [A,D][G,B,] [F,D][D,C] | %4
w: Hal- le-||* lu- * *||
 [G,B,]3 [G,D]/[G,D]/ | [D,D][D,A,] [D,A,][D,D] | [G,D][G,D] [G,B,][G,D] | [D,D]4- | %8
w: ||||
 [D,D]2 z G,/G,/ | [G,B,][G,B,] [G,B,][G,B,] | [G,B,]G, [G,B,][G,D] | [A,D][G,B,] [F,D][D,C] | %12
w: * jah! I||* am * *||
 [G,B,]3 [G,B,]/[G,B,]/ | [C,C][C,C] [C,G,][C,C] | [D,A,]2 [D,C]2 | [G,B,]4- | [G,B,]2 z || %17
w: |||||
 [G,B,]/[G,B,]/ | [G,B,][A,C] [B,D][A,C] | [G,B,]2 z [G,B,]/[G,B,]/ | [D,A,][E,C] [F,C][D,C] | %21
w: free, Hal-|le- lu- jah! He|saved me, *||
 [G,B,]2 z [G,B,]/[G,B,]/ | C[B,D] [A,D][G,D] | [D,D][D,D] [D,D][D,D] | [D,A,][D,A,] [F,D][A,D] | %25
w: ||||
 [D,A,]2 z [F,A,]/[F,A,]/ | [G,B,][G,B,] [G,B,][G,B,] | [G,B,]G, [G,B,][G,D] | %28
w: |||
 [A,D][G,B,] [F,D][D,C] | [G,B,]3 [G,B,]/[G,B,]/ | [C,C][C,C] [C,G,][C,C] | [D,A,]2 [D,C]2 | %32
w: ||||
 [G,B,]4- | [G,B,]2 z |] %34
w: ||
V:4
 G,/G,/ | x4 | x G, x2 | x4 | x4 | x4 | x4 | x4 | x3 G,/G,/ | x4 | x G, x2 | x4 | x4 | x4 | x4 | %15
 x4 | x3 || x | x4 | x4 | x4 | x4 | C x3 | x4 | x4 | x4 | x4 | x G, x2 | x4 | x4 | x4 | x4 | x4 | %33
 x3 |] %34

